X:25
T:Good Lord Scroope alias Hughie Graham
Z:Jack Campin, http://www.campin.me.uk/
F:Jack Campin's Nine-Note Tunebook
% last edit 03-02-2013
S:Blaikie MS (NLS MS.1578) p32, Blaikie #102
M:2/4
L:1/16
Q:1/4=66
K:DMin
A2Bc  d2`cB|c2c2 d4  |A2Bc  d2`cB|c2c2 d4 |
A2Bc  d2`cB|c2c2 d2cB|c2Bc  A2`D2|E2DC D4 |
c2c=B A2`D2|EDEG A2d2|c2c=B A2`D2|E2DC D4|]

